rospo-light/16x16/actions/insert-image.svg

<svg height="16" viewBox="0 0 16 16" width="16" xmlns="http://www.w3.org/2000/svg"><path d="m3 .00390625c-1 0-1 .99999995-1 .99999995v7.9960938c.00003 1 1 1 1 1h10s1 0 1-1v-7.9960938c-.00003-.9999999-1-.99999995-1-.99999995zm3 3.49609375 3 3 1.5-1.5 1.5 1.5v1.5h-8v-2.5zm-1 8.5 3 4 3-4z" fill="#5c616c"/></svg>

<?xml version="1.0" encoding="UTF-8" standalone="no"?>
<svg xmlns="http://www.w3.org/2000/svg" width="22" height="22" viewBox="0 0 22 22">
 <defs>
  <style type="text/css" id="current-color-scheme">
   .ColorScheme-Text { color:#5c616c; } .ColorScheme-Highlight { color:#5294e2; }
  </style>
 </defs>
 <path style="fill:currentColor;opacity:1" class="ColorScheme-Text" transform="translate(3 3)" d="M 3 0.00390625 C 2 0.00390625 2 1.0039062 2 1.0039062 L 2 9 C 2.00003 10 3 10 3 10 L 13 10 C 13 10 14 10 14 9 L 14 1.0039062 C 13.99997 0.0039063 13 0.00390625 13 0.00390625 L 3 0.00390625 z M 6 3.5 L 9 6.5 L 10.5 5 L 12 6.5 L 12 8 L 4 8 L 4 5.5 L 6 3.5 z M 5 12 L 8 16 L 11 12 L 5 12 z"/>
</svg>
